app/content/themes/irontheme/images/general/flask.svg

<svg width="36" height="36" viewBox="0 0 36 36" fill="none" xmlns="http://www.w3.org/2000/svg">
<path d="M30.6151 31.1899L23.0024 12.6343C22.5803 11.6049 22.3661 10.5189 22.3661 9.40622V4.50137C22.3661 3.97321 22.5718 3.47662 22.9453 3.10309C23.4007 2.64771 23.6517 2.04208 23.6517 1.39801V0.703125C23.6517 0.314758 23.3367 0 22.9486 0H13.1315C12.7431 0 12.4284 0.314758 12.4284 0.703125V1.39801C12.4284 2.04208 12.6791 2.64771 13.1345 3.10309C13.5081 3.47662 13.7138 3.97321 13.7138 4.50165V9.40622C13.7138 10.5189 13.4998 11.6049 13.0774 12.6343L10.9856 17.733C10.9848 17.735 10.9839 17.7369 10.9831 17.7388L5.46469 31.1899C5.02276 32.2674 5.14608 33.4883 5.79483 34.4553C6.44357 35.4227 7.526 36 8.69055 36H27.3893C28.5538 36 29.6365 35.4227 30.2853 34.4553C30.9337 33.488 31.0571 32.2674 30.6151 31.1899ZM14.3784 13.1679C14.8706 11.9685 15.12 10.7029 15.12 9.40622V4.50137C15.12 3.59775 14.7682 2.74796 14.1291 2.10883C13.9412 1.92096 13.8368 1.67157 13.8346 1.40625H22.2455C22.2433 1.67157 22.1389 1.92068 21.9508 2.10883C21.3119 2.74796 20.9598 3.59747 20.9598 4.50137V9.40594C20.9598 10.7026 21.2095 11.9682 21.7014 13.1677L23.399 17.3057H12.6808L14.3784 13.1679ZM29.1172 33.672C28.7244 34.2578 28.0946 34.5938 27.3893 34.5938H8.69055C7.9855 34.5938 7.35571 34.2578 6.96267 33.672C6.66632 33.2301 6.55316 32.7176 6.63006 32.2122H7.78857C8.17666 32.2122 8.49169 31.8972 8.49169 31.5091C8.49169 31.1207 8.17666 30.8059 7.78857 30.8059H7.14257L7.95007 28.8372H9.13604C9.52441 28.8372 9.83917 28.5222 9.83917 28.1341C9.83917 27.7457 9.52441 27.4309 9.13604 27.4309H8.52713L9.33462 25.4622H10.5541C10.9425 25.4622 11.2572 25.1472 11.2572 24.7591C11.2572 24.3707 10.9425 24.0559 10.5541 24.0559H9.91168L10.7194 22.0872H11.9719C12.3603 22.0872 12.675 21.7722 12.675 21.3841C12.675 20.9957 12.3603 20.6809 11.9719 20.6809H11.2962L12.104 18.7122H23.9758L29.3141 31.7238C29.5816 32.3762 29.5099 33.0864 29.1172 33.672Z" fill="url(#paint0_linear)"/>
<path d="M27.1429 31.2339C26.9957 30.8744 26.5853 30.7024 26.2258 30.8494C25.8666 30.9966 25.6944 31.407 25.8413 31.7665L25.8451 31.7753C25.9567 32.0475 26.219 32.2123 26.4961 32.2123C26.5848 32.2123 26.6749 32.1955 26.7622 32.1598C27.1215 32.0126 27.2937 31.602 27.1465 31.2427L27.1429 31.2339Z" fill="url(#paint1_linear)"/>
<path d="M26.1492 28.8113L23.6311 22.6738C23.4839 22.3146 23.0733 22.1426 22.7138 22.2901C22.3545 22.4374 22.1828 22.8482 22.3301 23.2075L24.8481 29.345C24.9596 29.6172 25.2219 29.7814 25.4991 29.7814C25.5878 29.7814 25.6781 29.7647 25.7655 29.7287C26.1247 29.5815 26.2967 29.1706 26.1492 28.8113Z" fill="url(#paint2_linear)"/>
<defs>
<linearGradient id="paint0_linear" x1="30.8767" y1="18" x2="5.20313" y2="18" gradientUnits="userSpaceOnUse">
<stop stop-color="#2063B1"/>
<stop offset="1" stop-color="#3CBAFC"/>
</linearGradient>
<linearGradient id="paint1_linear" x1="27.1991" y1="31.5046" x2="25.7888" y2="31.5046" gradientUnits="userSpaceOnUse">
<stop stop-color="#2063B1"/>
<stop offset="1" stop-color="#3CBAFC"/>
</linearGradient>
<linearGradient id="paint2_linear" x1="26.202" y1="26.0094" x2="22.2773" y2="26.0094" gradientUnits="userSpaceOnUse">
<stop stop-color="#2063B1"/>
<stop offset="1" stop-color="#3CBAFC"/>
</linearGradient>
</defs>
</svg>

<svg width="36" height="36" viewBox="0 0 36 36" fill="none" xmlns="http://www.w3.org/2000/svg"><path d="M30.615 31.19l-7.613-18.556a8.468 8.468 0 01-.636-3.228V4.501c0-.528.206-1.024.58-1.398a2.396 2.396 0 00.706-1.705V.703A.703.703 0 0022.949 0H13.13a.703.703 0 00-.703.703v.695c0 .644.251 1.25.706 1.705.374.374.58.87.58 1.399v4.904a8.462 8.462 0 01-.637 3.228l-2.091 5.099-.003.006-5.518 13.45a3.48 3.48 0 00.33 3.266A3.48 3.48 0 008.69 36h18.698a3.481 3.481 0 002.896-1.545 3.482 3.482 0 00.33-3.265zM14.378 13.168a9.86 9.86 0 00.742-3.762V4.501c0-.903-.352-1.753-.99-2.392a1 1 0 01-.295-.703h8.41a.999.999 0 01-.294.703A3.362 3.362 0 0020.96 4.5v4.905c0 1.297.25 2.562.741 3.762l1.698 4.138H12.681l1.697-4.138zm14.74 20.504a2.05 2.05 0 01-1.729.922H8.691a2.05 2.05 0 01-1.728-.922 2.047 2.047 0 01-.333-1.46h1.16a.703.703 0 000-1.406h-.646l.807-1.969h1.186a.703.703 0 000-1.406h-.609l.808-1.969h1.22a.703.703 0 000-1.406h-.643l.807-1.969h1.253a.703.703 0 000-1.406h-.676l.808-1.969h11.872l5.338 13.012a2.05 2.05 0 01-.197 1.948z" fill="url(#paint0_linear)"/><path d="M27.143 31.234a.703.703 0 00-1.302.532l.004.01a.703.703 0 001.302-.533l-.004-.01z" fill="url(#paint1_linear)"/><path d="M26.15 28.811l-2.519-6.137a.703.703 0 10-1.3.534l2.517 6.137a.703.703 0 101.301-.534z" fill="url(#paint2_linear)"/><defs><linearGradient id="paint0_linear" x1="30.877" y1="18" x2="5.203" y2="18" gradientUnits="userSpaceOnUse"><stop stop-color="#2063B1"/><stop offset="1" stop-color="#3CBAFC"/></linearGradient><linearGradient id="paint1_linear" x1="27.199" y1="31.505" x2="25.789" y2="31.505" gradientUnits="userSpaceOnUse"><stop stop-color="#2063B1"/><stop offset="1" stop-color="#3CBAFC"/></linearGradient><linearGradient id="paint2_linear" x1="26.202" y1="26.009" x2="22.277" y2="26.009" gradientUnits="userSpaceOnUse"><stop stop-color="#2063B1"/><stop offset="1" stop-color="#3CBAFC"/></linearGradient></defs></svg>
